X:1
T:Se nasce in cielo
T:Simone Molinaro Genovese
T:Source : Canzonette a tre voci---Libro secondo---Venetia---R.Amadino---1600. Editor : André Vierendeels (30/11/16).
T:Notes : Original clefs : C2, C3, C4 Editorial accidentals above the staff
T:Se nasce in cielo
T:©
T:©
C:Simone Molinaro Genovese
Z:©
%%score [ 1 [ 2 3 ] ]
L:1/8
Q:1/4=99
M:4/4
K:C
V:1 treble nm="Alto" snm="A"
V:2 treble-8 nm="Tenor 1" snm="T 1"
V:3 treble-8 nm="Tenor 2" snm="T 2"
V:1
 G4 G2 G2 | A4 G2 G2 | G2 _B2 A4 |[M:2/4] G4 ::[M:4/4] z2 G2 G2 F2 | E2 EG F2 E2 | D4 E4 | %7
w: Se na- sce'in|cie- lo'il di-|o di de-|lo,|a l'oc- ci-|den- ti giun- ge re-|pen- te,|
w: Brie- ve ba-|le- no, du-|ra'il se- re-|no,|o- gni tem-|pe- sta al fin s'ar-|re- sta,|
w: Na- sce vi-|ci- na, al|fior la spi-|na,|se- gui- ta'il|pian- to, al ri- so'a|can- to,|
w: A- mor ci'af-|fig- ge, e|ci traf- fi-|ge|se na- sce'a-|dor- no, se mo- re'il|gior- no,|
 z2 A2 A2 A2 | G4 G2 G2 | F2 E2 D2 D2 | G2 F4 E2 | D4 C4 :| %12
w: se si fà|not- te, se|gue l'au- ro- ra|e'l ciel in-|do- ra.|
w: ver- deg- gia'il|ra- mo, e|poi si spo- glia|d'o- gni sua|so- glia.|
w: so- lo l'a-|mo- re, e|sta- t'e ver- no|du- ra'in e-|ter- no.|
w: in o- gni|tem- po, a-|mor ci se- gue,|e ci per-|se- gue.|
V:2
 e4 d2 e2 | f4 e2 e2 | e2 g4 ^f2 |[M:2/4] g4 ::[M:4/4] z2 d2 e2 f2 | g2 ge d2 c2- | c2 B2 c4 | %7
w: Se na- sce'in|cie- lo'il di-|o di de-|lo,|a l'oc- ci-|den- ti giun- ge re-|* pen- te,|
w: Brie- ve ba-|le- no, du-|ra'il se- re-|no,|o- gni tem-|pe- sta al fin s'ar-|* re- sta,|
w: Na- sce vi-|ci- na, al|fior la spi-|na,|se- gui- ta'il|pian- to, al ri- so'a|_ can- to,|
w: A- mor ci'af-|fig- ge, e|ci traf- fig-|ge,|se na- sce'a-|dor- no, se- mo- re'il|_ gior- no,|
 z2 f2 f2 f2 | e4 e2 d2 |"^-natural""^-natural" d2 c2 B2 B2 | c2 A4 c2- | c2 B2 c4 :| %12
w: se si fà|not- te, se-|gue l'au- ro- ra|e'l ciel in-|* do- ra.|
w: ver- deg- gia'il|ra- mo, e|poi si spo- glia|d'o- gni sua|_ so- glia.|
w: so- lo l'a-|mo- re, e-|sta- t'e ver- no|du- ra'in e-|* ter- no.|
w: in o- gni|tem- po, a-|mor ci se- gue,|e ci per-|* se- gue.|
V:3
 c4 B2 c2 | F4 c2 c2 | c2 G2 d4 |[M:2/4] G4 ::[M:4/4] z2 G2 c2 d2 | c2 cC D2 E2 | G4 C4 | %7
w: Se na- sce'in|cie- lo,il, di-|o di del-|lo,|a l'oc- ci-|den- te, giun- ge re-|pen- te,|
w: Brie- ve ba-|le- no, du-|ra'il se- re-|no,|o- gni tem-|pe- sta al fin s'ar-|re- sta,|
w: Na- sce vi-|ci- na, al|fior la spi-|na,|se- gui- ta'il|pian- to, al ri- so'à|can- to,|
w: A- mor ci'af-|flig- ge, e|ci traf- fig-|ge,|se na- sce'a-|dor- no, se mo- re'il|gior- no,|
 z2 F2 A3 B | c4 c2 G2 | _B2 c2 G2 G2 | E2 F4 C2 | G4 C4 :| %12
w: se si fà|not- te, se-|gue l'au- ro- ra|e'l ciel in-|do- ra.|
w: ver- deg- gia'il|ra- mo, e|poi si spo- glia|d'o- gni sua|so- glia.|
w: so- lo l'a-|mo- re, e|sta- t'e ver- no|du- ra'in e-|ter- no.|
w: in o- gni|tem- po, a-|mor ci se- gue,|e ci per-|se- gue.|

